X:361
T:Delphic Delusion
M:C|
C:© Paul Gitlitz 2014
K:Aphry
"C"c2c_d "Bb"B2Bc| "A"A2AB A^GA2|"C"c2c_d "Bb"B2Bc|"A"A^GAB A2AB|!
"C"c2c_d "Bb"B2Bc| "A"A2AB A^GAB|"Gm"c_def g_aag|gffe "A"e2AB|!
"C"c2c_d "Bb"B2Bc| "A"A2AB A^GA2|"C"c2c_d "Bb"B2Bc|"A"A^GAB A2AB|!
"C"c2c_d "Bb"B2Bc| "A"A2AB A^GAB|"Bb"c_def "Gm"gfec|"Bb"^cdBc "A"A4|!
|:"Gm"b2g2 "Dm"a2f2|"C"gefg  "Fm"_agfe|"A#m"Beef fgge|"C#m6"e_dcB "C"c4|!
"Gm"b2g2 "Dm"a2f2|"Bbdim"eAfA  "C#dim"gA_aA|"Dm"aggf fee^c|1"Bb"^cdBc "A"A4:|2"Bb"d2e2"A"a4|]
